X: 166
%
U:~=!turn!
T: The Earl of Fife's Fireside
C:Rob't. Petrie
O:Scotland
B:Keith Norman MacDonald : "The Skye collection of the best reels & strathspeys extant" : 1887
Z:Ralph Palmer
R:Strathspey
M:C
L:1/8
K:F
c | A<F TF2 C>F TF2 | A>F A/B/c/A/ B<G G>B | A<F TF2 C<F TF2 | B<G c>B AF F :| c | (f/e/f/g/) fc AcAF | Bd d/c/B/A/ BGGe |
(f/e/f/g/) fc dfdB | df ef/g/ af fg/a/ | (3bag (3agf (3gfe (3fed | (d/c/B/A/) fA BGGB | (3AFA (3cAc (3dBd (3fdf | (3efg (3gab (3aff z |]


